X:1
T:God’s Call to Israel
T:Seeley D. Kinne
T:God’s Call to Israel
T:Public Domain
T:Public Domain
C:Seeley D. Kinne
Z:Public Domain
%%score ( 1 2 ) ( 3 4 )
L:1/8
M:3/4
K:D
V:1 treble 
V:2 treble 
V:3 bass 
V:4 bass 
V:1
 [A,D]2 | [DF]>[EG] [FA]>[Gc] [Ac]>[Gc] | [Fd]4 [GB]2 | [FA]>[DF] [EG]>E [DF]>[EG] | [FA]4 [A,D]2 | %5
w: 1.~O|Is- ra- el, to Christ a-|wake, Bend|low, God’s chast- ening rod to|Judg- ment|
w: 2.~O|Zi- on, cap- tive daugh- ter,|come, Be-|hold the Lamb! Be- hold the|Look! see|
w: 3.~Je-|ru- sa- lem! A- wake! a-|wake! Shake|off thy dust— i- dols for-|Oh, heark-|
w: 4.~A-|rise and shine in God’s true|light, All|en- e- mies He’ll put to|With sing-|
w: 5.~A-|wak- ened by the Son of|God, With|Spir- it’s wit- ness to the|Sor- row|
 [DF]>[EG] [FA]>[Gc] [Ad]>[GB] | [Ec]4 [Fd]2 | [Ec]>[EB] [Ec]>[EB] [EA]>[D^G] | [CA]4 (FE) | %9
w: will set with o- pen book;|Up- on|the dy- ing Lamb now look:|For you *|
w: His arm is out- stretched still|To bring|thee home in His good will;|A- wake! *|
w: en, daugh- ter, un- der- stand,|Re- turn|un- to thy fa- ther- land.|A- wake! *|
w: ing un- to Zi- on come,|Prais- ing|thy God for His dear Son,|A- wake! *|
w: and mourn- ing flee a- way,|The Com-|fort- er has come to stay,|A- wak- *|
 [A,D]>[A,D] [DF]>[FA] [GB]>[Gd] | [FA]4 ([GB][FA]) | [EG]>[DF] [CE]>[CG] [CF]>[CE] | [A,D]4 |] %13
w: died— Je- ho- vah God— He’ll|cleanse you *|in His pre- cious blood. *||
w: in the an- cient days; The|vi- sion *|will ref- lect His rays. *||
w: in the an- cient days, And|on the *|ho- ly ci- ty gaze. *||
w: in the an- cient days, And|join in *|psalms and sing His praise. *||
w: as in an- cient days— The|Christ of *|God has fixed thy gaze. *||
V:2
 x2 | x6 | x6 | x7/2 E/ x2 | x6 | x6 | x6 | x6 | x4 D2 | x6 | x6 | x6 | x4 |] %13
w: |||take,|||||He|||||
w: |||Son!|||||as|||||
w: |||sake!|||||as|||||
w: |||flight,|||||as|||||
w: |||blood,|||||ened|||||
V:3
 [D,F,]2 | [D,A,]>[D,A,] [D,D]>[E,A,] [F,A,]>[E,A,] | [D,A,]4 [G,D]2 | %3
 [D,D]>[D,A,] [C,A,]>[E,A,] [D,A,]>[D,A,] | [D,D]4 [D,F,]2 | %5
 [D,A,]>[D,A,] [D,D]>[E,A,] [F,D]>[G,D] | A,4 A,2 | A,>[E,^G,] [E,A,]>[E,D] [E,C]>[E,B,] | %8
 A,4 [D,A,]2 | [F,A,]>[F,A,] [D,A,]>[D,D] [G,D]>[G,B,] | [D,A,]4 [D,A,]2 | %11
 [A,,A,]>[A,,A,] [A,,A,]>[A,,A,] [A,,A,]>[A,,A,] | [D,F,]4 |] %13
V:4
 x2 | x6 | x6 | x6 | x6 | x6 | A,4 A,2 | A,3/2 x9/2 | A,4 x2 | x6 | x6 | x6 | x4 |] %13

